actions/symbolic/call-stop-symbolic.svg

<?xml version="1.0" encoding="UTF-8" standalone="no"?>
<svg
   xmlns:dc="http://purl.org/dc/elements/1.1/"
   xmlns:cc="http://creativecommons.org/ns#"
   xmlns:rdf="http://www.w3.org/1999/02/22-rdf-syntax-ns#"
   xmlns:svg="http://www.w3.org/2000/svg"
   xmlns="http://www.w3.org/2000/svg"
   xmlns:sodipodi="http://sodipodi.sourceforge.net/DTD/sodipodi-0.dtd"
   xmlns:inkscape="http://www.inkscape.org/namespaces/inkscape"
   viewBox="0 0 16 16"
   id="svg3197"
   version="1.1"
   inkscape:version="0.91 r13725"
   sodipodi:docname="call-stop-symbolic.svg">
  <metadata
     id="metadata3205">
    <rdf:RDF>
      <cc:Work
         rdf:about="">
        <dc:format>image/svg+xml</dc:format>
        <dc:type
           rdf:resource="http://purl.org/dc/dcmitype/StillImage" />
      </cc:Work>
    </rdf:RDF>
  </metadata>
  <sodipodi:namedview
     pagecolor="#ffffff"
     bordercolor="#666666"
     borderopacity="1"
     objecttolerance="10"
     gridtolerance="10"
     guidetolerance="10"
     inkscape:pageopacity="0"
     inkscape:pageshadow="2"
     inkscape:window-width="640"
     inkscape:window-height="480"
     id="namedview3203"
     showgrid="false"
     inkscape:zoom="8"
     inkscape:cx="13.499531"
     inkscape:cy="-3.4396462"
     inkscape:current-layer="svg3197" />
  <defs
     id="defs3051">
    <style
       type="text/css"
       id="current-color-scheme">
      .ColorScheme-NegativeText {
        color:#da4453;
      }
      </style>
  </defs>
  <path
     style="color:#da4453;fill:currentColor;fill-opacity:1;stroke:none"
     class="ColorScheme-NegativeText"
     d="M 8,2 A 6,6 0 0 0 2,8 6,6 0 0 0 8,14 6,6 0 0 0 14,8 6,6 0 0 0 8,2 Z M 7.956058,6.4003907 c 2.602178,-0.00622 3.555633,1.1380533 3.596191,1.1879882 0.08701,0.1100843 0.157786,0.2272786 0.216798,0.3603519 0.06316,0.1432004 0.105976,0.2949524 0.124511,0.4438477 l 0.0074,0 0.0058,0.3925777 C 11.907143,9.071142 11.683129,9.304055 11.407247,9.305176 l -1.387208,0.0029 C 9.7443843,9.308215 9.5197055,9.076892 9.5190628,8.7910108 L 9.5175628,8.09228 C 9.4833028,8.082455 9.4466878,8.0719625 9.4091638,8.061515 9.0661092,7.9639842 8.59607,7.8312238 7.9604338,7.8329998 7.3231842,7.8344998 6.8547963,7.969874 6.5117029,8.0688395 c -0.036297,0.010538 -0.071839,0.020048 -0.1054687,0.029295 l 0.00147,0.46875 0,0.2314456 C 6.4083563,9.084638 6.1839183,9.317513 5.9081882,9.318349 l -1.3857453,0.0029 C 4.2469055,9.321917 4.0206581,9.090492 4.0200015,8.8041845 l 0.00147,-0.3925785 0.010255,0 C 4.0494397,8.2624302 4.0904099,8.1111808 4.1533001,7.9662935 4.2143913,7.8296015 4.2849317,7.7114878 4.368632,7.6059418 5.0340317,6.7537847 6.0734829,6.4049751 7.9560545,6.4003907 Z"
     id="path3201"
     inkscape:connector-curvature="0" />
</svg>

<svg xmlns="http://www.w3.org/2000/svg" viewBox="0 0 16 16">
  <path fill="#da4453" d="M8 2a6 6 0 0 0-6 6 6 6 0 0 0 6 6 6 6 0 0 0 6-6 6 6 0 0 0-6-6zm-.044 4.4c2.602-.006 3.556 1.138 3.596 1.188a1.651 1.651 0 0 1 .342.805h.007l.006.392a.511.511 0 0 1-.5.52l-1.387.003a.51.51 0 0 1-.5-.517l-.002-.699-.109-.03c-.343-.098-.813-.23-1.449-.229-.637.001-1.105.137-1.448.236l-.106.03.002.468v.231a.51.51 0 0 1-.5.52l-1.386.003a.51.51 0 0 1-.502-.517l.001-.392h.01a1.597 1.597 0 0 1 .338-.806c.665-.852 1.704-1.201 3.587-1.206z"/>
</svg>
